!!!OTL: At Sundown
!!!COM: Donaldson, Walter
!!!LAR: Frey, Hugo
!! "At Sundown" by Walter Donaldson
!! from "Barbershop Memories" compiled and arranged by Hugo Frey
!! copyright 1975 by EMI Music Publ. Ltd.; p. 7; alla breve; in F major
!! NOTE:  The second ending is encoded.
**kern	**kern	**kern	**kern
*Ivox	*Ivox	*Ivox	*Ivox
*M2/2	*M2/2	*M2/2	*M2/2
*F:	*F:	*F:	*F:
8.F	8.A	8.c	8.f
16F	16G#	16Bn	16f
8.F	8.A	8.c	8.f
16F#	16B-	16c#	16f#
=1	=1	=1	=1
4G	4B-	4d	4g
8GG	8Gn	8B-	8d
[8GG	[8G	[8B-	[8d
8G]	8G]	8B-]	8d]
8D	8A	8A	8fn
4D-	4A	4A	4f
=2	=2	=2	=2
4C	4B-	4A	4e
8C	8B-	8G	8e
[8C	[8B-	[8G	[8e
8C]	8B-]	8G]	8e]
8C	8B-	8E	8c
4C	4B-	4G	4e
=3	=3	=3	=3
2FF	2A	2F	2c
{2F	{2A	{2D	{2d
=4	=4	=4	=4
2C}	2A}	2D}	2d}
8.D	8.A	8.c	8.f#
16D	16G#	16Bn	16fn
8.D	8.A	8.c	8.f#
16D	16B-	16c#	16f
=5	=5	=5	=5
4G	4B-	4d	4g
8GG	8Gn	8B-	8d
[8GG	[8G	[8B-	[8d
8GG]	8G]	8B-]	8d]
8D	8A	8A	8fn
4D-	4A	4A	4f
=6	=6	=6	=6
4C	4B-	4A	4e
8C	8B-	8G	8e
[8C	[8B-	[8G	[8e
8C]	8B-]	8G]	8e]
8C	8B-	8E	8c
4C	4B-	4G	4e
=7	=7	=7	=7
2FF	2A	2F	2c
{2F	{2A	{2D	{2d
=8	=8	=8	=8
4C}	4A}	4D}	4d}
4r	4A	4F	4c
2r	4G	4E	4c#
.	4G	4E-	4c#
=9	=9	=9	=9
2AA	2F#	2D	2cn
4D	4A	4F#	4c
4D	4F#	4A	4c
=10	=10	=10	=10
2D	2A	2c	2f#
4D	4G#	4Bn	4fn
4D	4A	4c	4f#
=11	=11	=11	=11
2GG	2Bn	2e	2g
[2GG	[2D	[2Bn	[2f
=12	=12	=12	=12
2GG]	2D]	2B]	2f]
2G	2Bn	2e	2g
=13	=13	=13	=13
2G	2B-	2d	2e
[2C	[2G	[2E	[2B-
=14	=14	=14	=14
2C]	2G]	2E]	2B-]
2C	2G#	2e-	2c
=15	=15	=15	=15
2F	2A	2d	2c
4C	[2F	[2A	[2c
{4D	.	.	.
=16	=16	=16	=16
2FF}	2F]	2A]	2c]
8.F	8.A	8.c	8.f
16F	16G#	16Bn	16f
8.F	8.A	8.c	8.f
16F#	16B-	16c#	16f#
=17	=17	=17	=17
4G	4B-	4d	4g
8GG	8Gn	8B-	8d
[8GG	[8G	[8B-	[8d
8GG]	8G]	8B-]	8d]
8D	8A	8A	8fn
4D-	4A	4A	4f
=18	=18	=18	=18
4C	4B-	4A	4e
8C	8B-	8G	8e
[8C	[8B-	[8G	[8e
8C]	8B-]	8G]	8e]
8C	8B-	8E	8c
4C	4B-	4G	4e
=19	=19	=19	=19
2FF	2A	2F	2C
{2F	[2A	[2D	[2d
=20	=20	=20	=20
2C}	2A]	2D]	2d]
8.D	8.A	8.c	8.f#
16D	16G#	16Bn	16fn
8.D	8.A	8.c	8.f#
16D	16B-	16c#	16f#
=21	=21	=21	=21
4G	4B-	4d	4g
8GG	8Gn	8B-	8d
[8GG	[8G	[8B-	[8d
8GG]	8G]	8B-]	8d]
8D	8A	8A	8fn
4D-	4A	4A	4f
=22	=22	=22	=22
4C	4B-	4A	4e
8C	8B-	8G	8e
[8C	[8B-	[8G	[8e
8C]	8B-]	8G]	8e]
8C	8B-	8E	8c
4C	4B-	4G	4e
=23	=23	=23	=23
2FF	2A	2F	2c
{2F	[2A	[2D	[2d
=24	=24	=24	=24
4C}	4A]	4D]	4d]
4r	4A	4F	4c
2r	4G	4E	4c#
.	4G	4E-	4c#
=25	=25	=25	=25
2AA	2F#	2D	2cn
4D	4A	4F#	4c
4D	4F#	4A	4c
=26	=26	=26	=26
2D	2A	2c	2f#
4D	4G#	4Bn	4fn
4D	4A	4c	4f#
=27	=27	=27	=27
2GG	2Bn	2e	2g
[2GG	[2D	[2Bn	[2f
=28	=28	=28	=28
2GG]	2D]	2B]	2f]
2GG	2G	2e	2Bn
=29	=29	=29	=29
4GG	4D	4d	4B-
8GG	8G	8B-	8d
[8GG	[8G	[8B-	[8d
8GG]	8G]	8B-]	8d]
8D	8A	8A	8f
4D-	4A	4A	4f
=30	=30	=30	=30
4C	4B-	4A	4e
8C	8B-	8G	8e
[8C	[8B-	[8G	[8e
8C]	8B-]	8G]	8e]
8C	8B-	8E	8c
4C	4B-	4G	4e
=31	=31	=31	=31
2FF	2A	2F	2c
8C	8F	8A	8d
8BBn	8E	8G#	8d
4C	4F	4A	4c
=32	=32	=32	=32
1F;	{2A-	{2d-	1f;
.	2An};	2c};	.
==	==	==	==
*-	*-	*-	*-
